src/icons/social-windows.svg

<svg xmlns="http://www.w3.org/2000/svg" width="512" height="512" viewBox="0 0 512 512">
    <path d="M416 255.9H238.9v127.9L416 409.5V255.9zm-188.6 0H96V363l131.4 19.1V255.9zM416 89.5l-177.1 25.3v129.7H416v-155zm-188.6 26.9L96 135.2v109.3h131.4V116.4z"/>
</svg>

<?xml version="1.0" encoding="UTF-8"?>
<svg width="512px" height="512px" viewBox="0 0 512 512" version="1.1" xmlns="http://www.w3.org/2000/svg" xmlns:xlink="http://www.w3.org/1999/xlink">
    <!-- Generator: Sketch 62 (91390) - https://sketch.com -->
    <title>social-windows</title>
    <desc>Created with Sketch.</desc>
    <g id="social-windows" stroke="none" stroke-width="1" fill="none" fill-rule="evenodd">
        <path d="M416,255.9 L238.9,255.9 L238.9,383.8 L416,409.5 L416,255.9 Z M227.4,255.9 L96,255.9 L96,363 L227.4,382.1 L227.4,255.9 Z M416,89.5 L238.9,114.8 L238.9,244.5 L416,244.5 L416,89.5 Z M227.4,116.4 L96,135.2 L96,244.5 L227.4,244.5 L227.4,116.4 Z" id="Shape" fill="#000000" fill-rule="nonzero"></path>
    </g>
</svg>
